X: 520
T: Cânâ Firâk-ı Aşkın ile...
C: Dede Efendi
O: Turkey
F: http://compmusic.upf.edu/node/140
N: suzinak--yuruksemai--yuruksemai--cana_firak-i--dede_efendi
N: makam= suzinak
N: form= yuruksemai
N: usul= yuruksemai = 6/8
M: 6/8
L: 1/16
K: C _1/4B _7/8e ^f 
Q: 1/4=96
%%MIDI tuningsystem comma53
d4f4 e4d2e2 d2c2B2c2  | d16 f3gf2e2  | \
w:  Câ  |  nâ   | 
d4e3d c4c2B2 {d}c8  | 
w:  fi râk_ *  *  *  *  *  ı   | 
B8 d4c2B2 d3ed2e2  | d2c2{d}B8c2B2 {d}c6z2  | \
w:  aş kın  i *  le   |  sû   | 
d4e4 f4g4 f2e2{f}e2d2  | 
w:  sû  | 
a2g2g8f2e2 e2d2{f}e2d2  | d8 dedcB2c2 d2e2f2g2  | \
w:  zi *  nâ ki *  nem   |  vay   SAZ  | 
f4g8f2a2 g8  | 
w:  Has  | 
d4e8d2f2 e8  | c4e3d c4c2B2 {d}c8  | \
w:  ret  |  fe zâ *  *  *  *  *  yı   | 
B8 d2e2d2c2 c3dc2d2  | 
w:  gam zen  *  i *  le   | 
B6c2 B2_7/8A2G2A2 B6z2  | B4e4 d4c4 B2c2B2_7/8A2  | \
w:  sî   |  sî  | 
G4d2c2 {d}c4B2_7/8A2 B2A2{B}A2G2  | 
w:  ne çâ *  *  *  ki *  nem   | 
G12_7/8A2B2 G8  | G8 B4_7/8A8c4  | B8 d4c2d2 e4d2c2  | \
w:  vay   SAZ  |  Yâr   |  yâr   | 
d2c2{d}c4 c2B2B2c2 B2_7/8A2{B}A2G2  | 
w:  şâh_ *  *  *  ı  *  ci *  hâ  | 
G12_7/8A2B2 G8  | G8 B4_7/8A8c4  | B8 d4c2d2 e4d2c2  | \
w:  nım  SAZ  |  dost   |  dost   | 
d2c2{d}c4 c2B2B2c2 B2_7/8A2{B}A2G2  | 
w:  dil *  *  *  de  *  ni *  hâ  | 
G12_7/8A2B2 G8  | G4c4 c4B2c2 d4d4  | \
w:  nım   SAZ  |  Ter  dil  li  ter  *  dil  li   | 
c2d2e4 e2d2c2B2 c4z4  | d4e4 e4e2d2 e6z2  | 
w:  ter  *  dil li  *  te  ne  nen    |  Te  nen  ni  te  ne  nen   | 
d2e2f2g2 f2e2d2c2 d2e2{f}e2d2  | d6f2 e2d2{e}c2B2 c6z2  | \
w:  nâ  *  *  *  te  *  ne  *  dir   |  ney    | 
G4c4 c4B2c2 d4d4  | 
w:  Ter  dil  li  ter  *  dil  li   | 
c2d2e4 e2d2c2B2 c4z4  | d4e4 e4e2d2 e6z2  | \
w:  ter  *  dil  li  *  te  ne  nen    |  Te  nen  ni  te  ne  nen   | 
d2e2f2g2 f2e2d2c2 d2e2{f}e2d2  | 
w:  nâ  *  *  *  te  *  ne  *  dir   | 
d8 dedcB2c2 d2e2f2g2  | f4g8f2a2 g6z2  | \
w:  ney   SAZ  |  Âh   | 
f2g2a2_b2 a2g2{a}f4 g2a2g2f2  | 
w:  gel   | 
e4f2g2 f2e2e3d {e}c6z2  | g8 g4g2f2 g8  | \
w:   |  rûh le ri  *  â  | 
f6a2 g2f2{g}e2d2 {e}c6z2  | 
w:  lim   | 
B8 d4c8e4  | d2e2f2g2 g2f2e3d {e}c6z2  | \
w:  gel   |  gel   | 
d2e2d2c2 f4e2d2 d2c2{d}c2B2  | 
w:  arz_ *  *  *  ı  ce *  mâl   | 
c12B2d2 c8  | f4g8f2a2 g8  | d4e8d2f2 e8  | \
w:  et   SAZ  |  Has  |  ret  | 
c4e3d {e}c4c2{d}B2 c8  | 
w:  fe zâ *  *  *  *  *  *  yı   | 
B8 d2e2d2c2 c3dc2d2  | B3cB2c2 B2_7/8A2G2A2 B6z2  | \
w:  gam zen  *  i *  le   |  sî   | 
B4e4 d4c4 B2c2B2_7/8A2  | 
w:  sî  | 
G4d2c2 {d}c4B2_7/8A2 B2A2{B}A2G2  | \
w:  ne çâ *  *  *  ki *  nem   | 
G16 z8  | d4f4 e4d2e2 d2c2B2c2  | 
w:  vay    |  Câ  | 
d16 f3gf2e2  | d4e3d c4c2B2 {d}c8  | \
w:  nâ   |  fi râk_ *  *  *  *  *  ı   | 
B8 d4c2B2 d3ed2e2  | d2c2{d}B8c2B2 {d}c6z2  | 
w:  aş kın  i *  le   |  sû   | 
d4e4 f4g4 f2e2{f}e2d2  | a2g2g8f2e2 e2d2{f}e2d2  | \
w:  sû  |  zi *  nâ ki *  nem   | 
d8 dedcB2c2 d2e2f2g2  | 
w:  vay   SAZ  | 
f4g8f2a2 g8  | d4e8d2f2 e8  | c4e3d c4c2B2 {d}c8  | \
w:  Has  |  ret  |  fe zâ *  *  *  *  *  yı   | 
B8 d2e2d2c2 c3dc2d2  | 
w:  gam zen  *  i *  le   | 
B6c2 B2_7/8A2G2A2 B6z2  | B4e4 d4c4 B2c2B2_7/8A2  | \
w:  sî   |  sî  | 
G4d2c2 {d}c4B2_7/8A2 B2A2{B}A2G2  | 
w:  ne çâ *  *  *  ki *  nem   | 
G12_7/8A2B2 G8  | G8 B4_7/8A8c4  | B8 d4c2d2 e4d2c2  | \
w:  vay   SAZ  |  Yâr   |  yâr   | 
d2c2{d}c4 c2B2B2c2 B2_7/8A2{B}A2G2  | 
w:  şâh_ *  *  *  ı  *  ci *  hâ  | 
G12_7/8A2B2 G8  | G8 B4_7/8A8c4  | B8 d4c2d2 e4d2c2  | \
w:  nım  SAZ  |  dost   |  dost   | 
d2c2{d}c4 c2B2B2c2 B2_7/8A2{B}A2G2  | 
w:  dil *  *  *  de  *  ni *  hâ  | 
G12_7/8A2B2 G8  | G4c4 c4B2c2 d4d4  | \
w:  nım   SAZ  |  Ter  dil  li  ter  *  dil  li   | 
c2d2e4 e2d2c2B2 c4z4  | d4e4 e4e2d2 e6z2  | 
w:  ter  *  dil li  *  te  ne  nen    |  Te  nen  ni  te  ne  nen   | 
d2e2f2g2 f2e2d2c2 d2e2{f}e2d2  | d6f2 e2d2{e}c2B2 c6z2  | \
w:  nâ  *  *  *  te  *  ne  *  dir   |  ney    | 
G4c4 c4B2c2 d4d4  | 
w:  Ter  dil  li  ter  *  dil  li   | 
c2d2e4 e2d2c2B2 c4z4  | d4e4 e4e2d2 e6z2  | \
w:  ter  *  dil  li  *  te  ne  nen    |  Te  nen  ni  te  ne  nen   | 
d2e2f2g2 f2e2d2c2 d2e2{f}e2d2  | 
w:  nâ  *  *  *  te  *  ne  *  dir   | 
d8 dedcB2c2 d2e2f2g2  | f4g8f2a2 g6z2  | \
w:  ney   SAZ  |  Âh   | 
f2g2a2_b2 a2g2{a}f4 g2a2g2f2  | 
w:  gel   | 
e4f2g2 f2e2e3d {e}c6z2  | g8 g4g2f2 g8  | \
w:   |  rûh le ri  *  â  | 
f6a2 g2f2{g}e2d2 {e}c6z2  | 
w:  lim   | 
B8 d4c8e4  | d2e2f2g2 g2f2e3d {e}c6z2  | \
w:  gel   |  gel   | 
d2e2d2c2 f4e2d2 d2c2{d}c2B2  | 
w:  arz_ *  *  *  ı  ce *  mâl   | 
c12B2d2 c8  | f4g8f2a2 g8  | d4e8d2f2 e8  | \
w:  et   SAZ  |  Has  |  ret  | 
c4e3d {e}c4c2{d}B2 c8  | 
w:  fe zâ *  *  *  *  *  *  yı   | 
B8 d2e2d2c2 c3dc2d2  | B3cB2c2 B2_7/8A2G2A2 B6z2  | \
w:  gam zen  *  i *  le   |  sî   | 
B4e4 d4c4 B2c2B2_7/8A2  | 
w:  sî  | 
G4d2c2 {d}c4B2_7/8A2 B2A2{B}A2G2  | \
w:  ne çâ *  *  *  ki *  nem   | 
G16 z8  | |


